**kern	**silbe	**harmony	**phrase	**leadinstrument	**rhyme	**timestamp	**harte
*ICvox	*	*M4/4	*	*	*	*	*M4/4
*VRlead*VRresponse	*	*	*	*	*	*	*
*Hstimme	*	*	*	*	*	*	*
*D:	*	*D:	*	*	*	*	*D:
r;	.	1r;	.	r	.	0	N.C.
*D:	*	*	*	*	*	*	*
*M4/4	*	*	*	*	*	*	*
*clefG2	*	*	*	*	*	*	*
=1	=1	=1	=1	=1	=1	=1	=1
*>Letter>A	*>Letter>A	*>Letter>A	*>Letter>A	*>Letter>A	*>Letter>A	*>Letter>A	*>Letter>A
*>Label>Intro	*>Label>Intro	*>Label>Intro	*>Label>Intro	*>Label>Intro	*>Label>Intro	*>Label>Intro	*>Label>Intro
r;	.	2.CM	newline	guitar	.	1.022	C:maj
=1	=1	=1	=1	=1	=1	=1	=1
1r	.	4GM	.	guitar	.	2.569	G:maj
=2	=2	=2	=2	=2	=2	=2	=2
*>Letter>B	*>Letter>B	*>Letter>B	*>Letter>B	*>Letter>B	*>Letter>B	*>Letter>B	*>Letter>B
*>Label>Verse	*>Label>Verse	*>Label>Verse	*>Label>Verse	*>Label>Verse	*>Label>Verse	*>Label>Verse	*>Label>Verse
.	.	1DM	newline	voice	.	3.084	D:maj
=2	=2	=2	=2	=2	=2	=2	=2
8f#	Blue	.	.	.	.	.	.
8f#	Jean	.	.	.	.	.	.
=3	=3	=3	=3	=3	=3	=3	=3
4r	.	1DM	.	voice	.	5.061	D:maj
4r	.	.	.	.	.	.	.
8r	.	.	.	.	.	.	.
8f#	I	.	.	.	.	.	.
=3	=3	=3	=3	=3	=3	=3	=3
4g	just	.	.	.	.	.	.
=4	=4	=4	=4	=4	=4	=4	=4
8f#	met	1DM	.	voice	.	7.038	D:maj
8f#	a	.	.	.	.	.	.
4e	girl	.	.	.	.	.	.
8d	named	.	.	.	.	.	.
[8f#	Blue	.	.	.	.	.	.
=4	=4	=4	=4	=4	=4	=4	=4
8f#]	_	.	.	.	.	.	.
4f#	Jean	.	.	.	.	.	.
=5	=5	=5	=5	=5	=5	=5	=5
.	.	1DM	.	voice	.	9.015	D:maj
8r	.	.	.	.	.	.	.
2r	.	.	.	.	.	.	.
=5	=5	=5	=5	=5	=5	=5	=5
8f#	Blue	.	.	.	.	.	.
8f#	Jean	.	.	.	.	.	.
=6	=6	=6	=6	=6	=6	=6	=6
4r	.	1DM	.	voice	.	10.992	D:maj
8r	.	.	.	.	.	.	.
8d	She	.	.	.	.	.	.
8d	got	.	.	.	.	.	.
8d	a	.	.	.	.	.	.
=6	=6	=6	=6	=6	=6	=6	=6
8g	cam-	.	.	.	.	.	.
8g	-o-	.	.	.	.	.	.
=7	=7	=7	=7	=7	=7	=7	=7
4f#	-flaged	1GM	newline	voice	.	12.969	G:maj
8e	face	.	.	.	.	.	.
8d	and	.	.	.	.	.	.
8d	no	.	.	.	.	.	.
8d	mon-	.	.	.	.	.	.
=7	=7	=7	=7	=7	=7	=7	=7
8d	-ey	.	.	.	a	.	.
8r	.	.	.	.	.	.	.
=8	=8	=8	=8	=8	=8	=8	=8
4r	.	1GM	.	voice	.	14.931	G:maj
4r	.	.	.	.	.	.	.
8r	.	.	.	.	.	.	.
8g	Re-	.	.	.	.	.	.
=8	=8	=8	=8	=8	=8	=8	=8
8g	-mem-	.	.	.	.	.	.
8g	-ber	.	.	.	.	.	.
=9	=9	=9	=9	=9	=9	=9	=9
4r	.	1GM	.	voice	.	16.892	G:maj
4r	.	.	.	.	.	.	.
8r	.	.	.	.	.	.	.
8d	They	.	.	.	.	.	.
=9	=9	=9	=9	=9	=9	=9	=9
8g	al-	.	.	.	.	.	.
8g	-ways	.	.	.	.	.	.
=10	=10	=10	=10	=10	=10	=10	=10
8f#	let	1GM	.	voice	.	18.854	G:maj
8f#	you	.	.	.	.	.	.
4a	down	.	.	.	.	.	.
8g	when	.	.	.	.	.	.
8g	you	.	.	.	.	.	.
=10	=10	=10	=10	=10	=10	=10	=10
8g	need	.	.	.	A	.	.
8g	'em	.	.	.	.	.	.
=11	=11	=11	=11	=11	=11	=11	=11
4r	.	1GM	.	voice	.	20.815	G:maj
4r	.	.	.	.	.	.	.
8r	.	.	.	.	.	.	.
8g	Oh	.	.	.	.	.	.
=11	=11	=11	=11	=11	=11	=11	=11
8g	Blue	.	.	.	.	.	.
8g	Jean	.	.	.	.	.	.
=12	=12	=12	=12	=12	=12	=12	=12
4r	.	1GM	.	voice	.	22.777	G:maj
4r	.	.	.	.	.	.	.
8r	.	.	.	.	.	.	.
8g	Is	.	.	.	.	.	.
=12	=12	=12	=12	=12	=12	=12	=12
8a	hea-	.	.	.	.	.	.
8g	-ven	.	.	.	.	.	.
=13	=13	=13	=13	=13	=13	=13	=13
8g	an-	1DM	newline	voice	.	24.739	D:maj
8g	-y	.	.	.	.	.	.
8a	sweet-	.	.	.	.	.	.
8g	-er	.	.	.	.	.	.
8g	than	.	.	.	.	.	.
8d	Blue	.	.	.	.	.	.
=13	=13	=13	=13	=13	=13	=13	=13
8f#	Jean	.	.	.	A	.	.
8r	.	.	.	.	.	.	.
=14	=14	=14	=14	=14	=14	=14	=14
4r	.	1DM	.	voice	.	26.668	D:maj
2r	.	.	.	.	.	.	.
=14	=14	=14	=14	=14	=14	=14	=14
2r	.	.	.	.	.	.	.
=15	=15	=15	=15	=15	=15	=15	=15
.	.	1CM	newline	voice	.	28.598	C:maj
8r	.	.	.	.	.	.	.
8~B	She	.	.	.	.	.	.
8~B	got	.	.	.	.	.	.
8~B	a	.	.	.	.	.	.
=15	=15	=15	=15	=15	=15	=15	=15
8~B	po-	.	.	.	.	.	.
8~B	-lice	.	.	.	.	.	.
=16	=16	=16	=16	=16	=16	=16	=16
8~B	bike	1DM	.	voice	.	30.529	D:maj
8r	.	.	.	.	.	.	.
2r	.	.	.	.	.	.	.
=16	=16	=16	=16	=16	=16	=16	=16
2r	.	.	.	.	.	.	.
=17	=17	=17	=17	=17	=17	=17	=17
.	.	2.CM	.	voice	.	32.461	C:maj
8r	.	.	.	.	.	.	.
8~B	She	.	.	.	.	.	.
8~B	got	.	.	.	.	.	.
8~B	a	.	.	.	.	.	.
=17	=17	=17	=17	=17	=17	=17	=17
8~B	turned	4GM	.	voice	.	33.909	G:maj
8~B	up	.	.	.	.	.	.
=18	=18	=18	=18	=18	=18	=18	=18
8~B	nose	1AM	.	voice	.	34.392	A:maj
8r	.	.	.	.	.	.	.
2r	.	.	.	.	.	.	.
=18	=18	=18	=18	=18	=18	=18	=18
1r	.	.	.	.	.	.	.
=19	=19	=19	=19	=19	=19	=19	=19
.	.	1AM	.	voice	.	36.323	A:maj
=19	=19	=19	=19	=19	=19	=19	=19
8r	.	.	.	.	.	.	.
8e	Some-	.	.	.	.	.	.
=20	=20	=20	=20	=20	=20	=20	=20
*>Letter>C	*>Letter>C	*>Letter>C	*>Letter>C	*>Letter>C	*>Letter>C	*>Letter>C	*>Letter>C
*>Label>Chorus	*>Label>Chorus	*>Label>Chorus	*>Label>Chorus	*>Label>Chorus	*>Label>Chorus	*>Label>Chorus	*>Label>Chorus
8f#	-times	1F#m	newline	voice	.	38.254	F#:min
8g	I	.	.	.	.	.	.
4a	feel	.	.	.	.	.	.
4f#	like	.	.	.	.	.	.
=20	=20	=20	=20	=20	=20	=20	=20
[1A	(Oh	.	.	.	.	.	.
=21	=21	=21	=21	=21	=21	=21	=21
.	.	1F#mm	.	voice	.	40.178	F#:min11
=21	=21	=21	=21	=21	=21	=21	=21
8A]	_	.	.	.	.	.	.
8A	the	.	.	.	.	.	.
=22	=22	=22	=22	=22	=22	=22	=22
4A	whole	1AM	.	voice	.	42.102	A:maj
4B	hu-	.	.	.	.	.	.
8A	-man	.	.	.	.	.	.
[8A	race)	.	.	.	.	.	.
=22	=22	=22	=22	=22	=22	=22	=22
4A]	_	.	.	.	.	.	.
=23	=23	=23	=23	=23	=23	=23	=23
4r	.	1AM	.	voice	.	44.026	A:maj
2r	.	.	.	.	.	.	.
=23	=23	=23	=23	=23	=23	=23	=23
8r	.	.	.	.	.	.	.
8e	Jazz-	.	.	.	.	.	.
=24	=24	=24	=24	=24	=24	=24	=24
8f#	-in'	1F#m	newline	voice	.	45.95	F#:min
8g	for	.	.	.	.	.	.
4a	Blue	.	.	.	.	.	.
4f#	Jean	.	.	.	A	.	.
=24	=24	=24	=24	=24	=24	=24	=24
[1A	(Oh	.	.	.	.	.	.
=25	=25	=25	=25	=25	=25	=25	=25
.	.	1F#mm	.	voice	.	47.846	F#:min11
=25	=25	=25	=25	=25	=25	=25	=25
8A]	_	.	.	.	.	.	.
8A	and	.	.	.	.	.	.
=26	=26	=26	=26	=26	=26	=26	=26
8A	when	1AM	.	voice	.	49.742	A:maj
8A	my	.	.	.	.	.	.
4B	Blue	.	.	.	.	.	.
4A	Jean's	.	.	.	.	.	.
=26	=26	=26	=26	=26	=26	=26	=26
4A	blue)	.	.	.	.	.	.
=27	=27	=27	=27	=27	=27	=27	=27
4r	.	1AM	.	voice	.	51.637	A:maj
2r	.	.	.	.	.	.	.
=27	=27	=27	=27	=27	=27	=27	=27
8r	.	.	.	.	.	.	.
8e	Blue	.	.	.	.	.	.
=28	=28	=28	=28	=28	=28	=28	=28
8f#	Jean	1F#m	newline	voice	.	53.533	F#:min
8g	can	.	.	.	.	.	.
4a	send	.	.	.	.	.	.
4f#	me	.	.	.	A	.	.
=28	=28	=28	=28	=28	=28	=28	=28
[1A	(Oh	.	.	.	.	.	.
=29	=29	=29	=29	=29	=29	=29	=29
.	.	1F#mm	.	voice	.	55.443	F#:min11
=29	=29	=29	=29	=29	=29	=29	=29
8A]	_	.	.	.	.	.	.
8A	some-	.	.	.	.	.	.
=30	=30	=30	=30	=30	=30	=30	=30
8A	-bod-	1AM	.	voice	.	57.352	A:maj
8A	-y	.	.	.	.	.	.
4B	send	.	.	.	.	.	.
4A	me)	.	.	.	.	.	.
=30	=30	=30	=30	=30	=30	=30	=30
1r	.	.	.	.	.	.	.
=31	=31	=31	=31	=31	=31	=31	=31
.	.	1AM	.	voice	.	59.262	A:maj
=31	=31	=31	=31	=31	=31	=31	=31
8r	.	.	.	.	.	.	.
8e	Some-	.	.	.	.	.	.
=32	=32	=32	=32	=32	=32	=32	=32
8f#	-bod-	1F#m	newline	voice	.	61.171	F#:min
8g	-y	.	.	.	.	.	.
4a	send	.	.	.	.	.	.
4f#	me	.	.	.	.	.	.
=32	=32	=32	=32	=32	=32	=32	=32
[1A	(Oh	.	.	.	.	.	.
=33	=33	=33	=33	=33	=33	=33	=33
.	.	1F#mm	.	voice	.	63.07	F#:min11
=33	=33	=33	=33	=33	=33	=33	=33
8A]	_	.	.	.	.	.	.
8A	some-	.	.	.	.	.	.
=34	=34	=34	=34	=34	=34	=34	=34
*>Letter>A	*>Letter>A	*>Letter>A	*>Letter>A	*>Letter>A	*>Letter>A	*>Letter>A	*>Letter>A
*>Label>Trans	*>Label>Trans	*>Label>Trans	*>Label>Trans	*>Label>Trans	*>Label>Trans	*>Label>Trans	*>Label>Trans
8A	-bod-	2.CM	newline	guitar	.	64.968	C:maj
8A	-y	.	.	.	.	.	.
4B	send	.	.	.	.	.	.
4A	me)	.	.	.	.	.	.
=34	=34	=34	=34	=34	=34	=34	=34
1r	.	4GM	.	guitar	.	66.421	G:maj
=35	=35	=35	=35	=35	=35	=35	=35
*>Letter>B	*>Letter>B	*>Letter>B	*>Letter>B	*>Letter>B	*>Letter>B	*>Letter>B	*>Letter>B
*>Label>Verse	*>Label>Verse	*>Label>Verse	*>Label>Verse	*>Label>Verse	*>Label>Verse	*>Label>Verse	*>Label>Verse
.	.	1DM	newline	voice	.	66.905	D:maj
=35	=35	=35	=35	=35	=35	=35	=35
8f#	One	.	.	.	.	.	.
8f#	day	.	.	.	.	.	.
=36	=36	=36	=36	=36	=36	=36	=36
4r	.	1DM	.	voice	.	68.84	D:maj
4r	.	.	.	.	.	.	.
8r	.	.	.	.	.	.	.
8f#	I'm	.	.	.	.	.	.
=36	=36	=36	=36	=36	=36	=36	=36
8g	gonn-	.	.	.	.	.	.
8g	-a	.	.	.	.	.	.
=37	=37	=37	=37	=37	=37	=37	=37
8f#	write	1DM	.	voice	.	70.775	D:maj
8f#	a	.	.	.	.	.	.
8e	po-	.	.	.	.	.	.
8d	-em	.	.	.	.	.	.
8d	in	.	.	.	.	.	.
8d	a	.	.	.	.	.	.
=37	=37	=37	=37	=37	=37	=37	=37
8f#	lett-	.	.	.	(B	.	.
8f#	-er	.	.	.	b)	.	.
=38	=38	=38	=38	=38	=38	=38	=38
8r	.	1DM	.	voice	.	72.71	D:maj
8r	.	.	.	.	.	.	.
2r	.	.	.	.	.	.	.
=38	=38	=38	=38	=38	=38	=38	=38
8f#	One	.	.	.	.	.	.
8f#	day	.	.	.	.	.	.
=39	=39	=39	=39	=39	=39	=39	=39
4r	.	1DM	.	voice	.	74.645	D:maj
8r	.	.	.	.	.	.	.
4r	.	.	.	.	.	.	.
8f#	I'm	.	.	.	.	.	.
=39	=39	=39	=39	=39	=39	=39	=39
8g	gonn-	.	.	.	.	.	.
8g	-a	.	.	.	.	.	.
=40	=40	=40	=40	=40	=40	=40	=40
8f#	get	1GM	newline	voice	.	76.58	G:maj
8f#	that	.	.	.	.	.	.
8e	fac-	.	.	.	.	.	.
8d	-ult-	.	.	.	.	.	.
8d	-y	.	.	.	.	.	.
8B	to-	.	.	.	.	.	.
=40	=40	=40	=40	=40	=40	=40	=40
8B	-geth-	.	.	.	(B	.	.
8d	-er	.	.	.	b)	.	.
=41	=41	=41	=41	=41	=41	=41	=41
4r	.	1GM	.	voice	.	78.509	G:maj
4r	.	.	.	.	.	.	.
8r	.	.	.	.	.	.	.
8g	Re-	.	.	.	.	.	.
=41	=41	=41	=41	=41	=41	=41	=41
8g	-mem-	.	.	.	.	.	.
8g	-ber	.	.	.	.	.	.
=42	=42	=42	=42	=42	=42	=42	=42
4r	.	1GM	.	voice	.	80.438	G:maj
4r	.	.	.	.	.	.	.
8r	.	.	.	.	.	.	.
8g	that	.	.	.	.	.	.
=42	=42	=42	=42	=42	=42	=42	=42
8a	eve-	.	.	.	.	.	.
8g	-ry-	.	.	.	.	.	.
=43	=43	=43	=43	=43	=43	=43	=43
8g	-bod-	1GM	.	voice	.	82.368	G:maj
8g	-y	.	.	.	.	.	.
8a	has	.	.	.	.	.	.
8g	to	.	.	.	.	.	.
8g	wait	.	.	.	.	.	.
8g	in	.	.	.	.	.	.
=43	=43	=43	=43	=43	=43	=43	=43
8g	line	.	.	.	C	.	.
8b	_	.	.	.	.	.	.
=44	=44	=44	=44	=44	=44	=44	=44
4r	.	1GM	.	voice	.	84.297	G:maj
4r	.	.	.	.	.	.	.
8r	.	.	.	.	.	.	.
8g	Oh	.	.	.	.	.	.
=44	=44	=44	=44	=44	=44	=44	=44
8g	Blue	.	.	.	.	.	.
8g	Jean	.	.	.	.	.	.
=45	=45	=45	=45	=45	=45	=45	=45
4r	.	1GM	.	voice	.	86.226	G:maj
4r	.	.	.	.	.	.	.
8r	.	.	.	.	.	.	.
8g	Oh	.	.	.	.	.	.
=45	=45	=45	=45	=45	=45	=45	=45
16a	look	.	.	.	.	.	.
8a	out	.	.	.	.	.	.
8.g	world	.	.	.	.	.	.
=46	=46	=46	=46	=46	=46	=46	=46
.	.	1DM	newline	voice	.	88.155	D:maj
8G	you	.	.	.	.	.	.
16A	know	.	.	.	.	.	.
8G	_	.	.	.	.	.	.
8.g	I've	.	.	.	.	.	.
8d	got	.	.	.	.	.	.
=46	=46	=46	=46	=46	=46	=46	=46
8f#	mine	.	.	.	C	.	.
8r	.	.	.	.	.	.	.
=47	=47	=47	=47	=47	=47	=47	=47
4r	.	1DM	.	voice	.	90.041	D:maj
2r	.	.	.	.	.	.	.
=47	=47	=47	=47	=47	=47	=47	=47
2r	.	.	.	.	.	.	.
=48	=48	=48	=48	=48	=48	=48	=48
.	.	1CM	newline	voice	.	91.926	C:maj
8r	.	.	.	.	.	.	.
8~B	She's	.	.	.	.	.	.
4~B	got	.	.	.	.	.	.
=48	=48	=48	=48	=48	=48	=48	=48
8~B	Lat-	.	.	.	.	.	.
8~B	-in	.	.	.	.	.	.
=49	=49	=49	=49	=49	=49	=49	=49
8~B	roots	1DM	.	voice	.	93.852	D:maj
8r	.	.	.	.	.	.	.
2r	.	.	.	.	.	.	.
=49	=49	=49	=49	=49	=49	=49	=49
2r	.	.	.	.	.	.	.
=50	=50	=50	=50	=50	=50	=50	=50
.	.	2.CM	.	voice	.	95.778	C:maj
8r	.	.	.	.	.	.	.
8~B	She's	.	.	.	.	.	.
4~B	got	.	.	.	.	.	.
=50	=50	=50	=50	=50	=50	=50	=50
8~B	eve-	4GM	.	voice	.	97.223	G:maj
8~B	-ry-	.	.	.	.	.	.
=51	=51	=51	=51	=51	=51	=51	=51
8~B	-thing	1AM	.	voice	A	97.704	A:maj
8r	.	.	.	.	.	.	.
2r	.	.	.	.	.	.	.
=51	=51	=51	=51	=51	=51	=51	=51
1r	.	.	.	.	.	.	.
=52	=52	=52	=52	=52	=52	=52	=52
.	.	1AM	.	voice	.	99.63	A:maj
=52	=52	=52	=52	=52	=52	=52	=52
8r	.	.	.	.	.	.	.
8e	Some-	.	.	.	.	.	.
=53	=53	=53	=53	=53	=53	=53	=53
*>Letter>C	*>Letter>C	*>Letter>C	*>Letter>C	*>Letter>C	*>Letter>C	*>Letter>C	*>Letter>C
*>Label>Chorus	*>Label>Chorus	*>Label>Chorus	*>Label>Chorus	*>Label>Chorus	*>Label>Chorus	*>Label>Chorus	*>Label>Chorus
8f#	-times	1F#m	newline	voice	.	101.556	F#:min
8g	I	.	.	.	.	.	.
4a	feel	.	.	.	.	.	.
4f#	like	.	.	.	.	.	.
=53	=53	=53	=53	=53	=53	=53	=53
[1A	(Oh	.	.	.	.	.	.
=54	=54	=54	=54	=54	=54	=54	=54
.	.	1F#mm	.	voice	.	103.465	F#:min11
=54	=54	=54	=54	=54	=54	=54	=54
8A]	_	.	.	.	.	.	.
8A	the	.	.	.	.	.	.
=55	=55	=55	=55	=55	=55	=55	=55
4A	whole	1AM	.	voice	.	105.374	A:maj
4B	hu-	.	.	.	.	.	.
8A	-man	.	.	.	.	.	.
[8A	race)	.	.	.	.	.	.
=55	=55	=55	=55	=55	=55	=55	=55
4A]	_	.	.	.	.	.	.
=56	=56	=56	=56	=56	=56	=56	=56
4r	.	1AM	.	voice	.	107.284	A:maj
2r	.	.	.	.	.	.	.
=56	=56	=56	=56	=56	=56	=56	=56
8r	.	.	.	.	.	.	.
8e	Jazz-	.	.	.	.	.	.
=57	=57	=57	=57	=57	=57	=57	=57
8f#	-in'	1F#m	newline	voice	.	109.193	F#:min
8g	for	.	.	.	.	.	.
4a	Blue	.	.	.	.	.	.
4f#	Jean	.	.	.	A	.	.
=57	=57	=57	=57	=57	=57	=57	=57
[1A	(Oh	.	.	.	.	.	.
=58	=58	=58	=58	=58	=58	=58	=58
.	.	1F#mm	.	voice	.	111.081	F#:min11
=58	=58	=58	=58	=58	=58	=58	=58
8A]	_	.	.	.	.	.	.
8A	and	.	.	.	.	.	.
=59	=59	=59	=59	=59	=59	=59	=59
8A	when	1AM	.	voice	.	112.969	A:maj
8A	my	.	.	.	.	.	.
4B	Blue	.	.	.	.	.	.
4A	Jean's	.	.	.	.	.	.
=59	=59	=59	=59	=59	=59	=59	=59
4A	blue)	.	.	.	.	.	.
=60	=60	=60	=60	=60	=60	=60	=60
4r	.	1AM	.	voice	.	114.858	A:maj
2r	.	.	.	.	.	.	.
=60	=60	=60	=60	=60	=60	=60	=60
8r	.	.	.	.	.	.	.
8e	Blue	.	.	.	.	.	.
=61	=61	=61	=61	=61	=61	=61	=61
8f#	Jean	1F#m	newline	voice	.	116.746	F#:min
8g	can	.	.	.	.	.	.
4cc#	send	.	.	.	.	.	.
4b	me	.	.	.	A	.	.
=61	=61	=61	=61	=61	=61	=61	=61
[1A	(Oh	.	.	.	.	.	.
=62	=62	=62	=62	=62	=62	=62	=62
.	.	1F#mm	.	voice	.	118.623	F#:min11
=62	=62	=62	=62	=62	=62	=62	=62
8A]	_	.	.	.	.	.	.
8A	some-	.	.	.	.	.	.
=63	=63	=63	=63	=63	=63	=63	=63
8A	-bod-	1AM	.	voice	.	120.5	A:maj
8A	-y	.	.	.	.	.	.
4B	send	.	.	.	.	.	.
4A	me)	.	.	.	.	.	.
=63	=63	=63	=63	=63	=63	=63	=63
1r	.	.	.	.	.	.	.
=64	=64	=64	=64	=64	=64	=64	=64
.	.	1AM	.	voice	.	122.377	A:maj
=64	=64	=64	=64	=64	=64	=64	=64
8r	.	.	.	.	.	.	.
8e	Some-	.	.	.	.	.	.
=65	=65	=65	=65	=65	=65	=65	=65
8f#	-bod-	1F#m	newline	voice	.	124.254	F#:min
8g	-y	.	.	.	.	.	.
4a	send	.	.	.	.	.	.
4f#	me	.	.	.	.	.	.
=65	=65	=65	=65	=65	=65	=65	=65
[1A	(Oh	.	.	.	.	.	.
=66	=66	=66	=66	=66	=66	=66	=66
.	.	1F#mm	.	voice	.	126.13	F#:min11
=66	=66	=66	=66	=66	=66	=66	=66
8A]	_	.	.	.	.	.	.
8A	some-	.	.	.	.	.	.
=67	=67	=67	=67	=67	=67	=67	=67
*>Letter>A	*>Letter>A	*>Letter>A	*>Letter>A	*>Letter>A	*>Letter>A	*>Letter>A	*>Letter>A
*>Label>Trans	*>Label>Trans	*>Label>Trans	*>Label>Trans	*>Label>Trans	*>Label>Trans	*>Label>Trans	*>Label>Trans
8A	-bod-	2.CM	newline	guitar	.	128.005	C:maj
8A	-y	.	.	.	.	.	.
4B	send	.	.	.	.	.	.
4A	me)	.	.	.	.	.	.
=67	=67	=67	=67	=67	=67	=67	=67
1r	.	4GM	.	guitar	.	129.454	G:maj
=68	=68	=68	=68	=68	=68	=68	=68
*>Letter>D	*>Letter>D	*>Letter>D	*>Letter>D	*>Letter>D	*>Letter>D	*>Letter>D	*>Letter>D
*>Label>Interlude	*>Label>Interlude	*>Label>Interlude	*>Label>Interlude	*>Label>Interlude	*>Label>Interlude	*>Label>Interlude	*>Label>Interlude
.	.	1DM	newline	guitar	.	129.938	D:maj
=68	=68	=68	=68	=68	=68	=68	=68
1r	.	.	.	.	.	.	.
=69	=69	=69	=69	=69	=69	=69	=69
.	.	1DM	.	guitar	.	131.819	D:maj
=69	=69	=69	=69	=69	=69	=69	=69
1r	.	.	.	.	.	.	.
=70	=70	=70	=70	=70	=70	=70	=70
.	.	1DM	.	guitar	.	133.701	D:maj
=70	=70	=70	=70	=70	=70	=70	=70
1r	.	.	.	.	.	.	.
=71	=71	=71	=71	=71	=71	=71	=71
.	.	1DM	.	guitar	.	135.582	D:maj
=71	=71	=71	=71	=71	=71	=71	=71
8r	.	.	.	.	.	.	.
8d	Some-	.	.	.	.	.	.
=72	=72	=72	=72	=72	=72	=72	=72
*>Letter>C2	*>Letter>C2	*>Letter>C2	*>Letter>C2	*>Letter>C2	*>Letter>C2	*>Letter>C2	*>Letter>C2
*>Label>Chorus	*>Label>Chorus	*>Label>Chorus	*>Label>Chorus	*>Label>Chorus	*>Label>Chorus	*>Label>Chorus	*>Label>Chorus
8f#	-times	1F#m	newline	voice	.	137.464	F#:min
8g	I	.	.	.	.	.	.
4a	feel	.	.	.	.	.	.
4f#	like	.	.	.	.	.	.
=72	=72	=72	=72	=72	=72	=72	=72
[1A	(Oh	.	.	.	.	.	.
=73	=73	=73	=73	=73	=73	=73	=73
.	.	1F#mm	.	voice	.	139.365	F#:min11
=73	=73	=73	=73	=73	=73	=73	=73
8A]	_	.	.	.	.	.	.
8A	the	.	.	.	.	.	.
=74	=74	=74	=74	=74	=74	=74	=74
4A	whole	1AM	.	voice	.	141.266	A:maj
4B	hu-	.	.	.	.	.	.
8A	-man	.	.	.	.	.	.
[8A	race)	.	.	.	.	.	.
=74	=74	=74	=74	=74	=74	=74	=74
4A]	_	.	.	.	.	.	.
=75	=75	=75	=75	=75	=75	=75	=75
4r	.	1AM	.	voice	.	143.167	A:maj
2r	.	.	.	.	.	.	.
=75	=75	=75	=75	=75	=75	=75	=75
8r	.	.	.	.	.	.	.
8e	Jazz-	.	.	.	.	.	.
=76	=76	=76	=76	=76	=76	=76	=76
8f#	-in'	1F#m	newline	voice	.	145.068	F#:min
8g	for	.	.	.	.	.	.
4a	Blue	.	.	.	.	.	.
4f#	Jean	.	.	.	A	.	.
=76	=76	=76	=76	=76	=76	=76	=76
[1A	(Oh	.	.	.	.	.	.
=77	=77	=77	=77	=77	=77	=77	=77
.	.	1F#mm	.	voice	.	146.951	F#:min11
=77	=77	=77	=77	=77	=77	=77	=77
8A]	_	.	.	.	.	.	.
8A	and	.	.	.	.	.	.
=78	=78	=78	=78	=78	=78	=78	=78
8A	when	1AM	.	voice	.	148.834	A:maj
8A	my	.	.	.	.	.	.
4B	Blue	.	.	.	.	.	.
4A	Jean's	.	.	.	.	.	.
=78	=78	=78	=78	=78	=78	=78	=78
4A	blue)	.	.	.	.	.	.
=79	=79	=79	=79	=79	=79	=79	=79
4r	.	1AM	.	voice	.	150.717	A:maj
2r	.	.	.	.	.	.	.
=79	=79	=79	=79	=79	=79	=79	=79
8r	.	.	.	.	.	.	.
8e	Blue	.	.	.	.	.	.
=80	=80	=80	=80	=80	=80	=80	=80
8f#	Jean	1F#m	newline	voice	.	152.599	F#:min
8g	can	.	.	.	.	.	.
4a	send	.	.	.	.	.	.
4f#	me	.	.	.	A	.	.
=80	=80	=80	=80	=80	=80	=80	=80
[1A	(Oh	.	.	.	.	.	.
=81	=81	=81	=81	=81	=81	=81	=81
.	.	1F#mm	.	voice	.	154.489	F#:min11
=81	=81	=81	=81	=81	=81	=81	=81
8A]	_	.	.	.	.	.	.
8A	some-	.	.	.	.	.	.
=82	=82	=82	=82	=82	=82	=82	=82
8A	-bod-	1AM	.	voice	.	156.379	A:maj
8A	-y	.	.	.	.	.	.
4B	send	.	.	.	.	.	.
4A	me)	.	.	.	.	.	.
=82	=82	=82	=82	=82	=82	=82	=82
1r	.	.	.	.	.	.	.
=83	=83	=83	=83	=83	=83	=83	=83
.	.	1AM	.	voice	.	158.269	A:maj
=83	=83	=83	=83	=83	=83	=83	=83
8r	.	.	.	.	.	.	.
8e	Some-	.	.	.	.	.	.
=84	=84	=84	=84	=84	=84	=84	=84
8f#	-bod-	1F#m	newline	voice	.	160.159	F#:min
8g	-y	.	.	.	.	.	.
4cc#	send	.	.	.	.	.	.
4b	me	.	.	.	.	.	.
=84	=84	=84	=84	=84	=84	=84	=84
[1A	(Oh	.	.	.	.	.	.
=85	=85	=85	=85	=85	=85	=85	=85
.	.	1F#mm	.	voice	.	162.025	F#:min11
=85	=85	=85	=85	=85	=85	=85	=85
8A]	_	.	.	.	.	.	.
8A	some-	.	.	.	.	.	.
=86	=86	=86	=86	=86	=86	=86	=86
8A	-bod-	1AM	.	voice	.	163.89	A:maj
8A	-y	.	.	.	.	.	.
4B	send	.	.	.	.	.	.
4A	me)	.	.	.	.	.	.
=86	=86	=86	=86	=86	=86	=86	=86
1r	.	.	.	.	.	.	.
=87	=87	=87	=87	=87	=87	=87	=87
.	.	1AM	.	voice	.	165.756	A:maj
=87	=87	=87	=87	=87	=87	=87	=87
8r	.	.	.	.	.	.	.
8c#	Some-	.	.	.	.	.	.
=88	=88	=88	=88	=88	=88	=88	=88
8d	-bod-	1F#m	newline	voice	.	167.622	F#:min
8e	-y	.	.	.	.	.	.
8r	.	.	.	.	.	.	.
8e	Some-	.	.	.	.	.	.
8f#	-bod-	.	.	.	.	.	.
8c#	-y	.	.	.	.	.	.
=88	=88	=88	=88	=88	=88	=88	=88
[1A	(Oh	.	.	.	.	.	.
=89	=89	=89	=89	=89	=89	=89	=89
.	.	1F#mm	.	voice	.	169.508	F#:min11
=89	=89	=89	=89	=89	=89	=89	=89
8A]	_	.	.	.	.	.	.
8A	some-	.	.	.	.	.	.
=90	=90	=90	=90	=90	=90	=90	=90
8A	-bod-	1AM	.	voice	.	171.394	A:maj
8A	-y	.	.	.	.	.	.
4B	send	.	.	.	.	.	.
4A	me)	.	.	.	.	.	.
=90	=90	=90	=90	=90	=90	=90	=90
1r	.	.	.	.	.	.	.
=91	=91	=91	=91	=91	=91	=91	=91
.	.	1AM	.	voice	.	173.28	A:maj
=91	=91	=91	=91	=91	=91	=91	=91
8r	.	.	.	.	.	.	.
8e	Some-	.	.	.	.	.	.
=92	=92	=92	=92	=92	=92	=92	=92
8f#	-bod-	1F#m	newline	voice	.	175.166	F#:min
8g	-y	.	.	.	.	.	.
4a	send	.	.	.	.	.	.
4f#	me	.	.	.	.	.	.
=92	=92	=92	=92	=92	=92	=92	=92
[1A	(Oh	.	.	.	.	.	.
=93	=93	=93	=93	=93	=93	=93	=93
.	.	1F#mm	.	voice	.	177.055	F#:min11
=93	=93	=93	=93	=93	=93	=93	=93
8A]	_	.	.	.	.	.	.
8A	some-	.	.	.	.	.	.
=94	=94	=94	=94	=94	=94	=94	=94
*>Letter>A2	*>Letter>A2	*>Letter>A2	*>Letter>A2	*>Letter>A2	*>Letter>A2	*>Letter>A2	*>Letter>A2
*>Label>Outro	*>Label>Outro	*>Label>Outro	*>Label>Outro	*>Label>Outro	*>Label>Outro	*>Label>Outro	*>Label>Outro
8A	-bod-	2.CM	newline	guitar	.	178.945	C:maj
8A	-y	.	.	.	.	.	.
4B	send	.	.	.	.	.	.
4A	me)	.	.	.	.	.	.
=94	=94	=94	=94	=94	=94	=94	=94
4r	.	4GM	.	guitar	.	180.386	G:maj
=95	=95	=95	=95	=95	=95	=95	=95
4r	.	2.CM	.	guitar	.	180.866	C:maj
2r	.	.	.	.	.	.	.
=95	=95	=95	=95	=95	=95	=95	=95
1r	.	4AM	.	guitar	.	182.308	A:5
=96	=96	=96	=96	=96	=96	=96	=96
.	.	1Em	newline	guitar	.	182.788	E:5
=96	=96	=96	=96	=96	=96	=96	=96
1r	.	.	.	.	.	.	.
.	.	1r;	.	r	.	189.589	N.C.
r;	.	.	.	.	.	.	.
r;	.	1r;	.	r	.	192.249	N.C.
*-	*-	*-	*-	*-	*-	*-	*-
!!!BillboardChartDate: 1984/11/10
!!!BillboardPeak: 8
!!!BillboardWeeksOnChart: 18
!!!COC: David Bowie
!!!ENC: Nathaniel Condit-Schultz
!!!EST: Awating manual error checking and editing.
!!!OTL: Blue Jean
!!!RDF**chordsym: original McGill chord annotation + (implied pitch class set, with bass pitch in first position)
!!!RDF**harmony: **recip + pitch class of root + harmonic quality
!!!RDF**leadinstrument: original McGill primary instrumentation annotation
!!!RDF**phrase: newline = linebreak in original McGill transcription
!!!RDF**timestamp: McGill audio timestamp in seconds
!!!RDT: 2017/01/12/
!!!SampleActualRank: 8
!!!SampleID#: 0818
!!!SampleTargetRank: 8
